X:1
T:NON NOBIS DOMINE
T:NON NOBIS DOMINE
T:W. BYRD
T:©rafclaudio@gmail.com
T:©rafclaudio@gmail.com
C:W. BYRD
Z:©rafclaudio@gmail.com
%%score [ 1 2 3 ]
L:1/8
Q:1/4=70
M:4/4
K:Bb
V:1 treble nm="Mezzo-Soprano" snm="MS"
V:2 treble-8 nm="Tenore" snm="T"
V:3 bass nm="Baritono" snm="Br"
V:1
"^A""^A" B,4 C2 D2 |"^A" E3 E D2 D2 | C4 B,4 |"^B""^B" z2 F2 GG E2 |"^B" B4 B2 _A2 | G3 G F4 | %6
w: Non no- bis|Do- mi- ne, non|no- bis,|sed no- mi- ni|tu- o da|glo- ri- am,|
"^C""^C" z2 C2 DD B,2 |"^C" F4 F2 E2 | D3 D C4 |"^A""^A" B,4 C2 D2 | E3 E D2 D2 |"^A" C4 B,4 | %12
w: sed no- mi- ni|tu- o da|glo- ri- am.|Non no- bis|Do- mi- ne, non|no- bis,|
"^B""^B" z2 F2 GG E2 |"^B" B4 B2 _A2 | G3 G F4 |"^C""^C" z2 C2 DD B,2 |"^C" F4 F2 E2 | D3 D C4 | %18
w: sed no- mi- ni|tu- o da|glo- ri- am,|sed no- mi- ni|tu- o da|glo- ri- am.|
 B,4 C2 D2 | E3 E !fermata!D4 |] %20
w: Non no- *|* mi- ne.|
V:2
 z4 F4 | G2 A2 B3 B | A2 A2 G4 | F4 z2 c2 | dd B2 f4 | f2 e2 d3 d | c4 z2 G2 | AA F2 c4 | %8
w: Non|no- bis Do- mi-|ne, non no-|bis, sed|no- mi- ni tu-|o da glo- ri-|am, sed|no- mi- ni tu-|
 c2 B2 A3 A | G4 F4 | G2 A2 B3 B | A2 A2 G4 | F4 z2 c2 | dd B2 f4 | f2 e2 d3 d | c4 z2 G2 | %16
w: o da glo- ri-|am. Non|no- bis Do- mi-|ne, non no-|bis, sed|no- mi- ni tu-|o da glo- ri-|am, sed|
 AA F2 c4 | c2 B2 A3 A | G4 F4 | G2 A2 !fermata!B4 |] %20
w: no- mi- ni tu-|o da glo- ri-|am. Non|no- * bis.|
V:3
 z8 | z4 B,,4 | C,2 D,2 E,3 E, | D,2 D,2 C,4 | B,,4 z2 F,2 | G,G, E,2 B,4 | B,2 _A,2 G,3 G, | %7
w: |Non|no- bis Do- mi-|ne, non no-|bis, sed|no- mi- ni tu-|o da glo- ri-|
 F,4 z2 C,2 | D,D, B,,2 F,4 | F,2 E,2 D,3 D, | C,4 B,,4 | C,2 D,2 E,3 E, | D,2 D,2 C,4 | %13
w: am, sed|no- mi- ni tu-|o da glo- ri-|am. Non|no- bis Do- mi-|ne, non no-|
 B,,4 z2 F,2 | G,G, E,2 B,4 | B,2 _A,2 G,3 G, | F,4 z2 C,2 | D,D, B,,2 F,4 | F,2 E,2 D,3 D, | %19
w: bis, sed|no- mi- ni tu-|o da glo- ri-|am, sed|no- mi- ni tu-|o da glo- ri-|
 C,4 !fermata!B,,4 |] %20
w: am. _|

